X:12196
T:O'Mahoney's
R:Reel
C:Martin Mulhaire
S:Arr. C. Ricker
M:4/4
L:1/8
Q:1/4=200
K:DMaj
dB|AF~F2 DFBF|AF~F2 ABde|fdad bdad|ef (3gfe cABc|
(3.d.c.B  (3.c.B.A BAFE|DEFD A,DFA|BG~G2 Bcde|(3fga ec d2:|
e|f2fa fgfe|df~f2 af~f|dFAd fedf|(3gag  (3fgf eAce|
f2fe fgfe|df~fa fdf|g2ef gbag|(3fga ec d2:|
(3efg|a2fa b2gb|affe fgaf|gfe^d efga|ba (3ba^g agfg|
(3aaa fa  (3bbb gb|af (3gfe fgaf|(3gag  (3fgf ecdB|AFGE D2D:|
G|FDDD ADFA|DFAd bafa|(3gag  (3fgf  (3efe  (3ded|(3cdc  (3BcB AFGE|
FDDD ADFA|DFAd bafa|(3gag  (3fgf ecdB|AFGE D2DG:|
